src/xmb/monochrome/Nintendo - Game Boy Color.svg

<?xml version="1.0" encoding="UTF-8" standalone="no"?>
<!-- Generator: Adobe Illustrator 16.0.0, SVG Export Plug-In . SVG Version: 6.00 Build 0)  -->

<svg
   xmlns:dc="http://purl.org/dc/elements/1.1/"
   xmlns:cc="http://creativecommons.org/ns#"
   xmlns:rdf="http://www.w3.org/1999/02/22-rdf-syntax-ns#"
   xmlns:svg="http://www.w3.org/2000/svg"
   xmlns="http://www.w3.org/2000/svg"
   xmlns:sodipodi="http://sodipodi.sourceforge.net/DTD/sodipodi-0.dtd"
   xmlns:inkscape="http://www.inkscape.org/namespaces/inkscape"
   version="1.1"
   id="svg2"
   inkscape:export-filename="/home/kivutar/Bureau/lakka-menu/reload.png"
   inkscape:export-xdpi="90"
   inkscape:version="0.91 r13725"
   inkscape:export-ydpi="90"
   sodipodi:docname="Nintendo - Game Boy Color.svg"
   x="0px"
   y="0px"
   width="64px"
   height="64px"
   viewBox="0 128 64 64"
   enable-background="new 0 128 64 64"
   xml:space="preserve"><metadata
     id="metadata8"><rdf:RDF><cc:Work
         rdf:about=""><dc:format>image/svg+xml</dc:format><dc:type
           rdf:resource="http://purl.org/dc/dcmitype/StillImage" /><dc:title></dc:title></cc:Work></rdf:RDF></metadata><defs
     id="defs6" /><sodipodi:namedview
     pagecolor="#808080"
     bordercolor="#666666"
     borderopacity="1"
     objecttolerance="10"
     gridtolerance="10000"
     guidetolerance="10"
     inkscape:pageopacity="0"
     inkscape:pageshadow="2"
     inkscape:window-width="1440"
     inkscape:window-height="836"
     id="namedview4"
     showgrid="true"
     inkscape:zoom="9.5625"
     inkscape:cx="32"
     inkscape:cy="32"
     inkscape:window-x="0"
     inkscape:window-y="27"
     inkscape:window-maximized="1"
     inkscape:current-layer="svg2"><inkscape:grid
       type="xygrid"
       id="grid3336"
       empspacing="4" /></sodipodi:namedview><path
     style="fill:#ffffff"
     d="M 18 5 C 17 5 16 6 16 7 L 16 56 C 16 59 28.000453 60 32.105469 60 C 36.000453 60 48 59 48 56 L 48 7 C 48 6 47 5 46 5 L 18 5 z M 19 8 L 45 8 C 45.553 8 46 8.447 46 9 L 46 29 C 46 32 36 32 32 32 C 28 32 18 32 18 29 L 18 9 C 18 8.447 18.447 8 19 8 z M 44 37 C 45.104 37 46 37.896 46 39 C 46 40.104 45.104 41 44 41 C 42.896 41 42 40.104 42 39 C 42 37.896 42.896 37 44 37 z M 22 38 L 23 38 C 24 38 24 38 24 39 L 24 40 L 25 40 C 26 40 26 40 26 41 L 26 42 C 26 43 26 43 25 43 L 24 43 L 24 44 C 24 45 24 45 23 45 L 22 45 C 21 45 21 45 21 44 L 21 43 L 20 43 C 19 43 19 43 19 42 L 19 41 C 19 40 19 40 20 40 L 21 40 L 21 39 C 21 38 21 38 22 38 z M 38 40 C 39.104 40 40 40.896 40 42 C 40 43.104 39.104 44 38 44 C 36.896 44 36 43.104 36 42 C 36 40.896 36.896 40 38 40 z M 28.5 50 L 30.5 50 C 30.777 50 31 50.223 31 50.5 C 31 50.777 30.777 51 30.5 51 L 28.5 51 C 28.223 51 28 50.777 28 50.5 C 28 50.223 28.223 50 28.5 50 z M 33.5 50 L 35.5 50 C 35.777 50 36 50.223 36 50.5 C 36 50.777 35.777 51 35.5 51 L 33.5 51 C 33.223 51 33 50.777 33 50.5 C 33 50.223 33.223 50 33.5 50 z "
     transform="translate(0,128)"
     id="Game_Boy" /></svg>

<svg xmlns="http://www.w3.org/2000/svg" xml:space="preserve" width="64" height="64" viewBox="0 128 64 64"><path d="M18 5c-1 0-2 1-2 2v49c0 3 12 4 16.105 4C36 60 48 59 48 56V7c0-1-1-2-2-2zm1 3h26a1 1 0 0 1 1 1v20c0 3-10 3-14 3s-14 0-14-3V9a1 1 0 0 1 1-1m25 29a2 2 0 1 1-.001 4.001A2 2 0 0 1 44 37m-22 1h1c1 0 1 0 1 1v1h1c1 0 1 0 1 1v1c0 1 0 1-1 1h-1v1c0 1 0 1-1 1h-1c-1 0-1 0-1-1v-1h-1c-1 0-1 0-1-1v-1c0-1 0-1 1-1h1v-1c0-1 0-1 1-1m16 2a2 2 0 1 1-.001 4.001A2 2 0 0 1 38 40m-9.5 10h2a.499.499 0 1 1 0 1h-2a.499.499 0 1 1 0-1m5 0h2a.499.499 0 1 1 0 1h-2a.499.499 0 1 1 0-1" style="fill:#fff" transform="translate(0 128)"/></svg>
